svg/neurology_negative.svg

<svg width="48" height="48" viewBox="0 0 48 48" fill="none" xmlns="http://www.w3.org/2000/svg">
<path d="M0 0V47.9994H47.9994V0H0ZM17.3378 3.99995C17.3518 3.99995 17.3658 4.00175 17.3808 4.00195C17.3958 4.00175 17.4108 3.99995 17.4258 3.99995C21.0567 4.00015 23.9997 6.94331 23.9997 10.5739C23.9997 6.94341 26.9427 4.00015 30.5736 3.99995C30.5886 3.99995 30.6036 4.00175 30.6186 4.00195C30.6336 4.00175 30.6476 3.99995 30.6616 3.99995C30.9856 3.99995 31.3006 4.03375 31.6086 4.08785C31.6766 4.09915 31.7466 4.10595 31.8136 4.12105C34.8506 4.70194 37.1475 7.36811 37.1475 10.5739C37.1475 10.7959 37.1325 11.0189 37.1085 11.2379C37.3395 11.2119 37.5725 11.1899 37.8065 11.1889C41.2265 11.1889 43.9995 14.0998 43.9995 17.6888C43.9964 20.0387 42.7845 22.2037 40.8315 23.3517C41.7245 24.5077 42.2115 25.9507 42.2125 27.4387C42.2095 29.3216 41.4315 31.1106 40.0755 32.3436C40.1505 32.7456 40.1875 33.1546 40.1885 33.5636C40.1885 36.7405 38.0005 39.4515 35.0156 39.9745C34.0606 42.4095 31.8016 44.0004 29.2926 44.0014C27.0507 44.0014 25.0927 42.7475 24.0077 40.8745C24.0047 40.8785 24.0017 40.8805 23.9997 40.8845C23.9977 40.8805 23.9947 40.8765 23.9917 40.8725C22.9067 42.7465 20.9487 43.9995 18.7068 43.9995C16.1978 43.9984 13.9388 42.4075 12.9838 39.9725C9.99938 39.4495 7.811 36.7385 7.8104 33.5616C7.8115 33.1526 7.8493 32.7436 7.9237 32.3416C6.56802 31.1086 5.78943 29.3196 5.78703 27.4377C5.78783 25.9487 6.27532 24.5057 7.16791 23.3497C5.21483 22.2017 4.00315 20.0367 3.99995 17.6878C3.99995 14.0978 6.77312 11.1879 10.1929 11.1879C10.4269 11.1879 10.6599 11.2079 10.8909 11.2359C10.8669 11.0169 10.8519 10.7959 10.8519 10.5739C10.8519 7.36801 13.1488 4.70194 16.1858 4.12105C16.2528 4.10665 16.3228 4.09975 16.3908 4.08785C16.6988 4.03365 17.0138 3.99995 17.3378 3.99995ZM23.9997 10.5739C23.9807 11.8249 23.2067 13.8338 22.4257 14.7338C21.8897 15.2958 21.0937 14.0838 22.0547 12.8548C22.2137 12.5348 22.3327 12.1978 22.4217 11.8539C22.4617 11.7009 22.4917 11.5459 22.5177 11.3909C22.5267 11.3329 22.5407 11.2749 22.5487 11.2169C22.5757 11.0039 22.5927 10.7889 22.5937 10.5739C22.5937 7.72 20.2797 5.40633 17.4258 5.40613C14.5718 5.40633 12.2578 7.72 12.2578 10.5739C12.2578 10.7949 12.2768 11.0129 12.3048 11.2299C12.3138 11.3059 12.3308 11.3799 12.3438 11.4549C12.3688 11.5979 12.3968 11.7389 12.4338 11.8789C12.4558 11.9639 12.4808 12.0488 12.5078 12.1328C12.5468 12.2568 12.5938 12.3808 12.6428 12.5018C12.6778 12.5908 12.7148 12.6788 12.7558 12.7658C12.8408 12.9468 12.9298 13.1268 13.0368 13.2988C12.4598 13.2038 11.5469 12.8888 10.1929 12.8118C7.6281 12.8118 5.54873 14.9948 5.54873 17.6878C5.54893 19.6378 6.65542 21.3997 8.3632 22.1677C9.71598 22.9997 9.71588 22.9997 8.83389 24.0207C7.9514 24.9167 7.45301 26.1487 7.45301 27.4377C7.45471 28.5656 7.8404 29.6566 8.53899 30.5156C9.61228 28.3926 11.7139 27.0637 14.0038 27.0617C15.4378 27.1097 15.4798 28.6686 14.0038 28.6876C12.1718 28.6896 10.5129 29.8216 9.76748 31.5776C9.58348 32.1416 9.42938 32.7156 9.37098 33.3236C9.36548 33.4026 9.36108 33.4826 9.35928 33.5616C9.36008 35.6666 10.6479 37.5335 12.5528 38.1905C13.0918 38.3195 13.6338 38.4475 14.3928 38.4175C15.6438 38.2305 14.3928 38.4175 14.9858 39.9725C15.7938 41.3115 17.1968 42.1235 18.7068 42.1245C21.0457 42.1245 22.9397 40.2065 23.0857 37.7905V18.8158C23.1897 18.0188 23.5977 17.7008 23.9997 17.7088C24.4017 17.7008 24.8097 18.0188 24.9137 18.8158V37.7905C25.0597 40.2065 26.9537 42.1245 29.2926 42.1245C30.8026 42.1235 32.2056 41.3115 33.0136 39.9725C33.6066 38.4175 32.3556 38.2305 33.6066 38.4175C34.3656 38.4475 34.9076 38.3195 35.4466 38.1905C37.3515 37.5335 38.6395 35.6666 38.6405 33.5616C38.6385 33.4826 38.6345 33.4046 38.6285 33.3256C38.5695 32.7176 38.4155 32.1436 38.2315 31.5796C37.4865 29.8236 35.8276 28.6916 33.9956 28.6886C32.5196 28.6706 32.5616 27.1117 33.9956 27.0637C36.2855 27.0657 38.3875 28.3946 39.4605 30.5176C40.1595 29.6586 40.5445 28.5676 40.5465 27.4387C40.5465 26.1507 40.0475 24.9187 39.1655 24.0227C38.2835 23.0017 38.2835 23.0017 39.6365 22.1697C41.3435 21.4017 42.4505 19.6398 42.4505 17.6888C42.4505 14.9968 40.3715 12.8138 37.8065 12.8138C36.4525 12.8898 35.5396 13.2058 34.9626 13.3008C35.0696 13.1288 35.1586 12.9488 35.2436 12.7678C35.2846 12.6808 35.3216 12.5908 35.3566 12.5018C35.4056 12.3808 35.4526 12.2578 35.4916 12.1328C35.5186 12.0488 35.5436 11.9639 35.5656 11.8789C35.6026 11.7389 35.6306 11.5979 35.6556 11.4549C35.6686 11.3799 35.6846 11.3059 35.6946 11.2299C35.7226 11.0139 35.7416 10.7949 35.7416 10.5739C35.7416 7.72 33.4276 5.40633 30.5736 5.40613C27.7197 5.40633 25.4057 7.72 25.4057 10.5739C25.4067 10.7889 25.4237 11.0039 25.4507 11.2169C25.4587 11.2749 25.4727 11.3319 25.4817 11.3909C25.5077 11.5459 25.5377 11.7009 25.5777 11.8539C25.6667 12.1978 25.7857 12.5348 25.9447 12.8548C26.9057 14.0838 26.1097 15.2958 25.5737 14.7338C24.7927 13.8338 24.0187 11.8249 23.9997 10.5739ZM18.0618 14.9198C18.3948 14.8688 18.7588 15.0568 18.8538 15.5388C18.9398 17.9198 17.2598 19.9917 14.9708 20.2267C14.8268 20.2417 14.6828 20.2497 14.5388 20.2497V20.2477C12.9548 20.2417 11.5029 19.3268 10.7519 17.8628C10.3409 16.7998 11.3069 16.2248 11.9238 17.0568C12.4588 18.2098 13.6198 18.8928 14.8358 18.7698C16.3388 18.6148 17.4478 17.2908 17.4608 15.7398C17.4288 15.2618 17.7298 14.9708 18.0618 14.9198ZM29.9376 14.9198C30.2696 14.9708 30.5706 15.2618 30.5386 15.7398C30.5516 17.2908 31.6606 18.6148 33.1636 18.7698C34.3796 18.8928 35.5406 18.2098 36.0755 17.0568C36.6925 16.2248 37.6585 16.7998 37.2475 17.8628C36.4965 19.3268 35.0446 20.2417 33.4606 20.2477V20.2497C33.3166 20.2497 33.1726 20.2417 33.0286 20.2267C30.7396 19.9917 29.0596 17.9198 29.1456 15.5388C29.2406 15.0568 29.6046 14.8688 29.9376 14.9198ZM19.3688 21.4787C19.8228 21.4427 20.2777 21.5237 20.6947 21.7147C21.2487 21.9987 20.7767 23.2167 19.8418 22.8687C19.7178 22.8487 19.5918 22.8397 19.4668 22.8517C18.6418 22.9167 18.0218 23.6707 18.0838 24.5367C18.1458 25.4037 18.8658 26.0547 19.6908 25.9897C19.8178 25.9797 19.9437 25.9517 20.0637 25.9077C20.9967 25.4647 21.5937 26.4847 21.0657 26.9157C20.6807 27.1687 20.2437 27.3197 19.7908 27.3567C18.2458 27.4787 16.8998 26.2617 16.7828 24.6407C16.6658 23.0187 17.8238 21.6037 19.3688 21.4797V21.4787ZM28.6306 21.4797C30.1756 21.6037 31.3336 23.0187 31.2166 24.6407C31.0996 26.2617 29.7536 27.4787 28.2086 27.3567C27.7557 27.3197 27.3187 27.1687 26.9337 26.9157C26.4057 26.4847 27.0027 25.4647 27.9356 25.9077C28.0556 25.9517 28.1816 25.9797 28.3086 25.9897C29.1336 26.0547 29.8536 25.4037 29.9156 24.5367C29.9776 23.6707 29.3576 22.9167 28.5326 22.8517C28.4076 22.8397 28.2816 22.8487 28.1576 22.8707C27.2227 23.2187 26.7507 22.0007 27.3047 21.7167C27.7217 21.5257 28.1766 21.4447 28.6306 21.4797ZM16.7228 30.1716C16.8668 30.1716 17.0108 30.1796 17.1538 30.1946C19.5298 30.4386 21.2667 32.6566 21.0347 35.1496C20.9117 36.4775 20.2227 37.7195 19.1778 38.4785C17.9528 39.1065 17.5808 37.6955 18.2708 37.3175C19.0468 36.8145 19.5568 35.9605 19.6458 35.0076C19.8038 33.3196 18.6258 31.8176 17.0178 31.6516C15.8008 31.5286 14.6398 32.2116 14.1048 33.3646C13.6548 34.4126 12.3588 33.9006 12.9338 32.5586C13.6848 31.0946 15.1388 30.1806 16.7228 30.1736V30.1716ZM31.2766 30.1716V30.1736C32.8606 30.1806 34.3146 31.0946 35.0656 32.5586C35.6406 33.9006 34.3446 34.4126 33.8946 33.3646C33.3596 32.2116 32.1986 31.5286 30.9816 31.6516C29.3736 31.8176 28.1956 33.3196 28.3536 35.0076C28.4426 35.9605 28.9526 36.8145 29.7286 37.3175C30.4186 37.6955 30.0466 39.1065 28.8216 38.4785C27.7767 37.7195 27.0877 36.4775 26.9647 35.1496C26.7327 32.6566 28.4696 30.4386 30.8456 30.1946C30.9886 30.1796 31.1326 30.1716 31.2766 30.1716Z" fill="#333333"/>
</svg>

<?xml version="1.0" encoding="UTF-8" standalone="no"?>
<!-- Created with Inkscape (http://www.inkscape.org/) -->
<svg id="svg8" xmlns:rdf="http://www.w3.org/1999/02/22-rdf-syntax-ns#" xmlns="http://www.w3.org/2000/svg" xmlns:osb="http://www.openswatchbook.org/uri/2009/osb" height="48" width="48" version="1.1" xmlns:cc="http://creativecommons.org/ns#" viewBox="0 0 12.7 12.7" xmlns:dc="http://purl.org/dc/elements/1.1/">
 <title id="title4753">UIO-icon</title>
 <metadata id="metadata5">
  <rdf:RDF>
   <cc:Work rdf:about="">
    <dc:format>image/svg+xml</dc:format>
    <dc:type rdf:resource="http://purl.org/dc/dcmitype/StillImage"/>
    <dc:title>UIO-icon</dc:title>
    <dc:creator>
     <cc:Agent>
      <dc:title>Joaquín Urbano</dc:title>
     </cc:Agent>
    </dc:creator>
    <dc:rights>
     <cc:Agent>
      <dc:title>GPL</dc:title>
     </cc:Agent>
    </dc:rights>
   </cc:Work>
  </rdf:RDF>
 </metadata>
 <g id="layer1" transform="translate(0,-284.3)">
  <path id="rect4769" d="m0 0v48h48v-48h-48zm17.338 4c0.014 0 0.028 0.0018 0.043 0.002 0.015-0.0002 0.03-0.002 0.045-0.002 3.631 0.0002 6.574 2.9434 6.574 6.574 0-3.6305 2.943-6.5738 6.574-6.574 0.015 0 0.03 0.0018 0.045 0.002 0.015-0.0002 0.029-0.002 0.043-0.002 0.324 0 0.639 0.0338 0.947 0.0879 0.068 0.0113 0.138 0.0181 0.205 0.0332 3.037 0.5809 5.334 3.2471 5.334 6.4529 0 0.222-0.015 0.445-0.039 0.664 0.231-0.026 0.464-0.048 0.698-0.049 3.42 0 6.193 2.911 6.193 6.5-0.003 2.35-1.215 4.515-3.168 5.663 0.893 1.156 1.38 2.599 1.381 4.087-0.003 1.883-0.781 3.672-2.137 4.905 0.075 0.402 0.112 0.811 0.113 1.22 0 3.177-2.188 5.888-5.173 6.411-0.955 2.435-3.214 4.026-5.723 4.027-2.242 0-4.2-1.254-5.285-3.127-0.003 0.004-0.006 0.006-0.008 0.01-0.002-0.004-0.005-0.008-0.008-0.012-1.085 1.874-3.043 3.127-5.285 3.127-2.509-0.001-4.768-1.592-5.723-4.027-2.9845-0.523-5.1729-3.234-5.1735-6.411 0.0011-0.409 0.0389-0.818 0.1133-1.22-1.3557-1.233-2.1343-3.022-2.1367-4.904 0.0008-1.489 0.4883-2.932 1.3809-4.088-1.9531-1.148-3.1648-3.313-3.168-5.662 0-3.59 2.7732-6.5 6.193-6.5 0.234 0 0.467 0.02 0.698 0.048-0.024-0.219-0.039-0.44-0.039-0.662 0-3.2059 2.297-5.872 5.334-6.4529 0.067-0.0144 0.137-0.0213 0.205-0.0332 0.308-0.0542 0.623-0.0879 0.947-0.0879zm6.662 6.574c-0.019 1.251-0.793 3.26-1.574 4.16-0.536 0.562-1.332-0.65-0.371-1.879 0.159-0.32 0.278-0.657 0.367-1.001 0.04-0.153 0.07-0.308 0.096-0.463 0.009-0.058 0.023-0.116 0.031-0.174 0.027-0.213 0.044-0.428 0.045-0.643 0-2.8539-2.314-5.1676-5.168-5.1678-2.854 0.0002-5.168 2.3139-5.168 5.1678 0 0.221 0.019 0.439 0.047 0.656 0.009 0.076 0.026 0.15 0.039 0.225 0.025 0.143 0.053 0.284 0.09 0.424 0.022 0.085 0.047 0.17 0.074 0.254 0.039 0.124 0.086 0.248 0.135 0.369 0.035 0.089 0.072 0.177 0.113 0.264 0.085 0.181 0.174 0.361 0.281 0.533-0.577-0.095-1.49-0.41-2.844-0.487-2.5648 0-4.6442 2.183-4.6442 4.876 0.0002 1.95 1.1067 3.712 2.8145 4.48 1.3528 0.832 1.3527 0.832 0.4707 1.853-0.8825 0.896-1.3809 2.128-1.3809 3.417 0.0017 1.128 0.3874 2.219 1.086 3.078 1.0733-2.123 3.1749-3.452 5.4649-3.454 1.434 0.048 1.476 1.607 0 1.626-1.832 0.002-3.491 1.134-4.2364 2.89-0.184 0.564-0.3381 1.138-0.3965 1.746-0.0055 0.079-0.0099 0.159-0.0117 0.238 0.0008 2.105 1.2886 3.972 3.1936 4.629 0.539 0.129 1.081 0.257 1.84 0.227 1.251-0.187 0 0 0.593 1.555 0.808 1.339 2.211 2.151 3.721 2.152 2.339 0 4.233-1.918 4.379-4.334v-18.975c0.104-0.797 0.512-1.115 0.914-1.107 0.402-0.008 0.81 0.31 0.914 1.107v18.975c0.146 2.416 2.04 4.334 4.379 4.334 1.51-0.001 2.913-0.813 3.721-2.152 0.593-1.555-0.658-1.742 0.593-1.555 0.759 0.03 1.301-0.098 1.84-0.227 1.905-0.657 3.193-2.524 3.194-4.629-0.002-0.079-0.006-0.157-0.012-0.236-0.059-0.608-0.213-1.182-0.397-1.746-0.745-1.756-2.404-2.888-4.236-2.891-1.476-0.018-1.434-1.577 0-1.625 2.29 0.002 4.392 1.331 5.465 3.454 0.699-0.859 1.084-1.95 1.086-3.079 0-1.288-0.499-2.52-1.381-3.416-0.882-1.021-0.882-1.021 0.471-1.853 1.707-0.768 2.814-2.53 2.814-4.481 0-2.692-2.079-4.875-4.644-4.875-1.354 0.076-2.267 0.392-2.844 0.487 0.107-0.172 0.196-0.352 0.281-0.533 0.041-0.087 0.078-0.177 0.113-0.266 0.049-0.121 0.096-0.244 0.135-0.369 0.027-0.084 0.052-0.169 0.074-0.254 0.037-0.14 0.065-0.281 0.09-0.424 0.013-0.075 0.029-0.149 0.039-0.225 0.028-0.216 0.047-0.435 0.047-0.656 0-2.8539-2.314-5.1676-5.168-5.1678-2.854 0.0002-5.168 2.3139-5.168 5.1678 0.001 0.215 0.018 0.43 0.045 0.643 0.008 0.058 0.022 0.115 0.031 0.174 0.026 0.155 0.056 0.31 0.096 0.463 0.089 0.344 0.208 0.681 0.367 1.001 0.961 1.229 0.165 2.441-0.371 1.879-0.781-0.9-1.555-2.909-1.574-4.16zm-5.938 4.346c0.333-0.051 0.697 0.137 0.792 0.619 0.086 2.381-1.594 4.453-3.883 4.688-0.144 0.015-0.288 0.023-0.432 0.023v-0.002c-1.584-0.006-3.036-0.921-3.787-2.385-0.411-1.063 0.555-1.638 1.172-0.806 0.535 1.153 1.696 1.836 2.912 1.713 1.503-0.155 2.612-1.479 2.625-3.03-0.032-0.478 0.269-0.769 0.601-0.82zm11.876 0c0.332 0.051 0.633 0.342 0.601 0.82 0.013 1.551 1.122 2.875 2.625 3.03 1.216 0.123 2.377-0.56 2.912-1.713 0.617-0.832 1.583-0.257 1.172 0.806-0.751 1.464-2.203 2.379-3.787 2.385v0.002c-0.144 0-0.288-0.008-0.432-0.023-2.289-0.235-3.969-2.307-3.883-4.688 0.095-0.482 0.459-0.67 0.792-0.619zm-10.569 6.559c0.454-0.036 0.909 0.045 1.326 0.236 0.554 0.284 0.082 1.502-0.853 1.154-0.124-0.02-0.25-0.029-0.375-0.017-0.825 0.065-1.445 0.819-1.383 1.685 0.062 0.867 0.782 1.518 1.607 1.453 0.127-0.01 0.253-0.038 0.373-0.082 0.933-0.443 1.53 0.577 1.002 1.008-0.385 0.253-0.822 0.404-1.275 0.441-1.545 0.122-2.891-1.095-3.008-2.716-0.117-1.622 1.041-3.037 2.586-3.161v-0.001zm9.262 0.001c1.545 0.124 2.703 1.539 2.586 3.161-0.117 1.621-1.463 2.838-3.008 2.716-0.453-0.037-0.89-0.188-1.275-0.441-0.528-0.431 0.069-1.451 1.002-1.008 0.12 0.044 0.246 0.072 0.373 0.082 0.825 0.065 1.545-0.586 1.607-1.453 0.062-0.866-0.558-1.62-1.383-1.685-0.125-0.012-0.251-0.003-0.375 0.019-0.935 0.348-1.407-0.87-0.853-1.154 0.417-0.191 0.872-0.272 1.326-0.237zm-11.908 8.692c0.144 0 0.288 0.008 0.431 0.023 2.376 0.244 4.113 2.462 3.881 4.955-0.123 1.328-0.812 2.57-1.857 3.329-1.225 0.628-1.597-0.783-0.907-1.161 0.776-0.503 1.286-1.357 1.375-2.31 0.158-1.688-1.02-3.19-2.628-3.356-1.217-0.123-2.378 0.56-2.913 1.713-0.45 1.048-1.746 0.536-1.171-0.806 0.751-1.464 2.205-2.378 3.789-2.385v-0.002zm14.554 0v0.002c1.584 0.007 3.038 0.921 3.789 2.385 0.575 1.342-0.721 1.854-1.171 0.806-0.535-1.153-1.696-1.836-2.913-1.713-1.608 0.166-2.786 1.668-2.628 3.356 0.089 0.953 0.599 1.807 1.375 2.31 0.69 0.378 0.318 1.789-0.907 1.161-1.045-0.759-1.734-2.001-1.857-3.329-0.232-2.493 1.505-4.711 3.881-4.955 0.143-0.015 0.287-0.023 0.431-0.023z" transform="matrix(.26458 0 0 .26458 0 284.3)" fill="#333"/>
 </g>
</svg>
